X:1
T:Battle Cry, 76.86 D
T:Battle Cry, 76.86 D
T:Alan Gray, 1916
T:Public Domain Courtesy of the Cyber Hymnal™
C:Alan Gray, 1916
Z:Public Domain
Z:Courtesy of the Cyber Hymnal™
%%score ( 1 2 ) ( 3 4 ) ( 5 6 )
L:1/8
Q:1/4=130
M:3/4
K:A
V:1 treble 
V:2 treble 
V:3 treble 
V:4 treble 
V:5 bass 
V:6 bass 
V:1
 F2 F2 F2 | A4 A2 | G6 | F6 | A2 E2 F2 | E4 D2 | !fermata!C4 E2 | A4 A2 | G2 E2 C2 | c4 c2 | %10
 B4 GG | E4 A2 | G4 F2 | !fermata!E6 | F2 F2 F2 | A4 A2 | B6 | c6 | F2 F2 F2 | A4 B2 | %20
 !fermata!B4 BB | d3 d d2 | c2 A2 F2 | B4 B2 x4 | A6 | c3 B A2 | A4 G2 x2 | !fermata!F6 |] %28
V:2
 x6 | x6 | x6 | x6 | x6 | x6 | x6 | x6 | x6 | x6 | x4 G2 | x6 | x6 | x6 | x6 | x6 | x6 | x6 | x6 | %19
 x6 | x4 B2 | x6 | x6 | B3 B B2 x4 | x6 | x6 | x8 | x6 |] %28
V:3
 [B,DF]2 [B,DF]2 [B,DF]2 | A4 A2 | [CEG]6 | [A,DF]6 | [CA]2 E2 [DF]2 | E4 D2 | %6
 !fermata![A,C]4 [A,CE]2 | [FA]4 [FA]2 | [EG]2 E2 C2 | [Ac]4 [Ac]2 | [B,FB]4 [B,EG]2 | E4 [CEA]2 | %12
 [EG]4 [^DF]2 | !fermata!E6 | [DF]4 [DF]2 | A4 A2 | [E-B]6 | [Ec]6 | F4 F2 | [EA]4 [^DB]2 | %20
 !fermata![EB]4 [EGB]2 | d4 d2 | c2 A2 [DF]2 | B4 B2 x4 | [DFA]2 F2 A2 | [Ac]3 [GB] [DFA]2 | %26
 A4 G2 x2 | !fermata![CF]6 |] %28
V:4
 x6 | [CF]6 | x6 | x6 | A,6 | B,6 | x6 | C6- | C6 | E6 | x6 | E2 ^D2 x2 | x6 | E6 | x6 | E6 | x6 | %17
 x6 | D6 | x6 | x6 | [FA]6 | F4 x2 | [D=G]6 x4 | x6 | C4 x2 | E6 x2 | x6 |] %28
V:5
 F,6- | [F,,F,A,]6 | [C,E,G,]6 | [D,F,]6 | E,4 [D,A,]2 | [E,G,]6 | !fermata![A,,E,]4 [A,,E,]2 | %7
 F,6 | [C,G,]4 C,2 | A,6 | [^D,F,]4 E,2 | E,6 | [B,,B,]6 | !fermata![E,G,]6 | [F,A,-]6 | [E,A,]6 | %16
 [E,G,]6 | [A,,A,]6 | [F,A,-]6 | [C,E,A,]4 [F,A,]2 | !fermata![E,G,]4 [E,G,]2 | [A,D]4 [D,A,D]2 | %22
 [A,,A,C]4 [B,,F,B,]2 | [=G,-B,]4 G,4 [=G,,B,]2 | [F,A,]2 F,2 A,2 | A,3 [G,B,] [D,F,A,]2 | %26
 C4 [C,,E,]2 [E,,B,]2 | !fermata![F,,F,A,]6 |] %28
V:6
 B,,2 D,2 B,,2 | x6 | x6 | x6 | A,,2 C,2 x2 | x6 | x6 | F,,2 A,,2 F,,2 | x4 C,2 | A,,2 C,2 A,,2 | %10
 x4 E,2 | C,2 B,,2 A,,2 | x6 | x6 | D,4 D,2 | C,4 C,2 | x6 | x6 | D,4 D,2 | x6 | x6 | D,2 A,2- x2 | %22
 x6 | =G,,2 B,,2 x6 | D,4 x2 | C,4 x2 | [A,,E,-]2 x6 | x6 |] %28

